X: 1
T: Polska fr\aan M\"ork\"o
S: Bruce Sagan's "scanfolk" session archive
F: https://app.box.com/s/u6iiren0igvsukrhdducy7orq72jayq8/file/838054411386 2021-07-24
R: polska
Z: 2021 John Chambers <jc:trillian.mit.edu>
M: 3/4
L: 1/8
K: A	% and Am
|: a>a ab c'a | b>b ba/b/ c'a | a>a ab c'a | b>b bq/b/ c'a |
|  e>f ed cB | AB/c/ d/B/c/d/ cB | Ac/e/ ae/d/ cB/A/ | G/A/B/G/ A4 :|[K:=f=c=g]
K: Am
|: e>e ff ee | d>f ed cB | A>c BA ^GE |1,3 A>B A^G E2 :|2,4 A/B/A/^G/ A4 :|
